docs/.gitbook/assets/icon-shuffle-16@light.svg

<svg width="32" height="32" viewBox="0 0 16 16" fill="none" xmlns="http://www.w3.org/2000/svg">
<rect x="0" y="0" width="16" height="16" fill="#fff"/>
<path fill-rule="evenodd" clip-rule="evenodd" d="M11.1925 1.24828C11.4696 0.9404 11.9438 0.915442 12.2517 1.19254L14.7517 3.44254C14.9098 3.58477 15 3.78739 15 4.00001C15 4.21262 14.9098 4.41525 14.7517 4.55748L12.2517 6.80748C11.9438 7.08457 11.4696 7.05961 11.1925 6.75173C10.9154 6.44385 10.9404 5.96963 11.2483 5.69254L12.2955 4.75001H10.6018C9.21525 4.75001 7.98137 5.6297 7.52936 6.94054L7.14133 8.06582L7.50822 9.0931C7.97017 10.3866 9.19538 11.25 10.5689 11.25H12.2955L11.2483 10.3075C10.9404 10.0304 10.9154 9.55617 11.1925 9.24828C11.4696 8.9404 11.9438 8.91544 12.2517 9.19254L14.7517 11.4425C14.9098 11.5848 15 11.7874 15 12C15 12.2126 14.9098 12.4152 14.7517 12.5575L12.2517 14.8075C11.9438 15.0846 11.4696 15.0596 11.1925 14.7517C10.9154 14.4438 10.9404 13.9696 11.2483 13.6925L12.2955 12.75H10.5689C8.71106 12.75 7.03887 11.6692 6.26476 10.0095C5.38896 11.2365 3.95984 12 2.39818 12H1.75C1.33579 12 1 11.6642 1 11.25C1 10.8358 1.33579 10.5 1.75 10.5H2.39818C3.78475 10.5 5.01863 9.62031 5.47064 8.30948L5.55165 8.07454L5.49179 7.90692C5.02983 6.61344 3.80462 5.75001 2.43112 5.75001H1.75C1.33579 5.75001 1 5.41422 1 5.00001C1 4.58579 1.33579 4.25001 1.75 4.25001H2.43112C3.95132 4.25001 5.34723 4.97371 6.2285 6.14604C6.96785 4.40028 8.685 3.25001 10.6018 3.25001H12.2955L11.2483 2.30748C10.9404 2.03038 10.9154 1.55617 11.1925 1.24828Z" fill="#000"/>
</svg>

<svg xmlns="http://www.w3.org/2000/svg" width="32" height="32" fill="none" viewBox="0 0 16 16"><path fill="#fff" d="M0 0h16v16H0z"/><path fill="#000" fill-rule="evenodd" d="M11.193 1.248a.75.75 0 0 1 1.059-.055l2.5 2.25a.75.75 0 0 1 0 1.114l-2.5 2.25a.75.75 0 1 1-1.004-1.114l1.048-.943h-1.694a3.25 3.25 0 0 0-3.073 2.19l-.388 1.126.367 1.027a3.25 3.25 0 0 0 3.06 2.157h1.728l-1.048-.943a.75.75 0 1 1 1.004-1.114l2.5 2.25a.75.75 0 0 1 0 1.114l-2.5 2.25a.75.75 0 1 1-1.004-1.114l1.048-.943h-1.727a4.75 4.75 0 0 1-4.304-2.74A4.75 4.75 0 0 1 2.398 12H1.75a.75.75 0 0 1 0-1.5h.648a3.25 3.25 0 0 0 3.073-2.19l.08-.235-.06-.168a3.25 3.25 0 0 0-3.06-2.157H1.75a.75.75 0 0 1 0-1.5h.681A4.75 4.75 0 0 1 6.23 6.146a4.75 4.75 0 0 1 4.373-2.896h1.694l-1.048-.943a.75.75 0 0 1-.055-1.059" clip-rule="evenodd"/></svg>
